svg/road.svg

<svg xmlns="http://www.w3.org/2000/svg" viewBox="0 0 24 24"><path d="M11 16h2v4h-2m0-10h2v4h-2m0-10h2v4h-2M4 22h16V2H4z"/></svg>

<?xml version="1.0" encoding="UTF-8"?><!DOCTYPE svg PUBLIC "-//W3C//DTD SVG 1.1//EN" "http://www.w3.org/Graphics/SVG/1.1/DTD/svg11.dtd"><svg xmlns="http://www.w3.org/2000/svg" xmlns:xlink="http://www.w3.org/1999/xlink" version="1.1" id="mdi-road" width="24" height="24" viewBox="0 0 24 24"><path d="M11,16H13V20H11M11,10H13V14H11M11,4H13V8H11M4,22H20V2H4V22Z" /></svg>
